X:1
T:Kitty O'Lynn. FTB.179
L:1/8
Q:1/8=120
M:6/8
I:linebreak $
K:D
V:1 treble 
V:1
 (f/e/) | dAA AFA | BGB A2 (f/e/) | dAA AFA | g3 f2 e | dAA AFA | BGB A2 f | aba gfe |$ fdd d2 :: %9
 (a/g/) | (f/g/a)a b2 a | (f/g/a)a b2 a | (f/g/a)a faa | e2 f gfe | (f/g/a)a b2 a |$ %15
 (f/g/a)a b2 a | gfg eag | fdd d2 :| %18
